X:18446
T:Waltz,A. JMT.004
M:3/4
L:1/8
Q:160
S:John Moore,Tyneside,1841 (02b)
R:Waltz
O:England
A:Northumbria
H:1841
Z:vmp.John Adams
K:D
A2 | d2 d-ef-d | A2F2A2 | G2E2A2 | F2D2F2 |d2d-ef-d | A2 F2 A2 | G2 E2 A
2| D4:|!
|: d2| c2cdec | d2 defd | e2 efge | f2d2A2 | B2BcdB | A2 d2 f2 | agfaec
| d4 :|!
|: A2 | B2 BcdB | A2 f2 A2| B2BcdB |  A4 A2 | B2 BcdB | Ad f2 a2 |  agfe
ec | d4 :|]


